public/images/linesanime.svg

<svg width="1922" height="166" viewBox="0 0 1922 166" fill="none" xmlns="http://www.w3.org/2000/svg">
<path d="M1 30.992C1 30.992 244.625 0.917508 403 1.00017C645.141 1.12655 779.899 104.111 1022 101.627C1221.9 99.5756 1405.81 21.399 1605.5 15.8558C1765.65 11.4101 1921 30.992 1921 30.992" stroke="#A47BD6" stroke-width="0.5"/>
<path d="M1 61.0096C1 61.0096 347.625 164.917 506 165C748.141 165.126 888.899 48.3577 1131 45.8734C1330.9 43.8221 1414.56 165 1614.5 165C1782.5 165 1912.5 112.024 1912.5 112.024" stroke="#A47BD6" stroke-width="0.5"/>
<path d="M1 26.7477C1 26.7477 249.53 3.0533 407.905 3.13596C650.046 3.26234 785.09 95.7825 1027.19 93.2982C1227.09 91.247 1406.23 22.5634 1605.93 17.2842C1766.45 13.0502 1920.6 29.1769 1920.6 29.1769" stroke="#A47BD6" stroke-width="0.5"/>
<path d="M1 22.5034C1 22.5034 254.435 5.18912 412.81 5.27178C654.951 5.39816 790.28 87.4539 1032.38 84.9696C1232.28 82.9183 1406.64 23.7279 1606.36 18.7126C1767.26 14.6903 1920.19 27.3619 1920.19 27.3619" stroke="#A47BD6" stroke-width="0.5"/>
<path d="M1 18.2583C1 18.2583 259.339 7.32405 417.714 7.40672C659.855 7.5331 795.471 79.1244 1037.57 76.6401C1237.47 74.5888 1407.06 24.8915 1606.79 20.1401C1768.06 16.3295 1919.79 25.546 1919.79 25.546" stroke="#A47BD6" stroke-width="0.5"/>
<path d="M1 14.0155C1 14.0155 264.244 9.46142 422.619 9.54408C664.76 9.67046 800.661 70.7973 1042.76 68.313C1242.66 66.2618 1407.48 26.0574 1607.21 21.5701C1768.86 17.9712 1919.38 23.7325 1919.38 23.7325" stroke="#A47BD6" stroke-width="0.5"/>
<path d="M1 11.6777C1 11.6777 269.149 13.5037 427.524 13.5864C669.665 13.7128 805.852 64.3752 1047.95 61.8909C1247.85 59.8396 1407.89 29.1284 1607.64 24.905C1769.66 21.5178 1918.98 23.8239 1918.98 23.8239" stroke="#A47BD6" stroke-width="0.5"/>
<path d="M1 13.8135C1 13.8135 274.054 22.0196 432.429 22.1022C674.57 22.2286 811.042 62.4266 1053.14 59.9423C1253.05 57.891 1408.31 36.6729 1608.07 32.7134C1770.47 29.5379 1918.57 28.3889 1918.57 28.3889" stroke="#A47BD6" stroke-width="0.5"/>
<path d="M1 15.9492C1 15.9492 278.958 30.5354 437.333 30.6181C679.474 30.7445 816.233 60.478 1058.33 57.9937C1258.24 55.9424 1408.73 44.2173 1608.5 40.5218C1771.27 37.5581 1918.17 32.9539 1918.17 32.9539" stroke="#A47BD6" stroke-width="0.5"/>
<path d="M1 18.085C1 18.085 283.863 39.0513 442.238 39.1339C684.379 39.2603 821.423 58.5294 1063.52 56.0451C1263.43 53.9938 1409.14 51.7618 1608.93 48.3303C1772.07 45.5782 1917.76 37.5188 1917.76 37.5188" stroke="#A47BD6" stroke-width="0.5"/>
<path d="M1 20.2207C1 20.2207 288.768 47.5671 447.143 47.6498C689.284 47.7761 826.614 56.5808 1068.71 54.0965C1268.62 52.0452 1409.56 59.3063 1609.36 56.1387C1772.87 53.5983 1917.36 42.0838 1917.36 42.0838" stroke="#A47BD6" stroke-width="0.5"/>
<path d="M1 22.3555C1 22.3555 293.673 56.082 452.048 56.1646C694.189 56.291 831.804 54.6312 1073.9 52.1469C1273.81 50.0957 1409.98 66.8498 1609.79 63.9462C1773.67 61.6175 1916.95 46.6478 1916.95 46.6478" stroke="#A47BD6" stroke-width="0.5"/>
<path d="M1 24.4922C1 24.4922 298.578 64.5988 456.952 64.6814C699.093 64.8078 836.995 52.6836 1079.1 50.1993C1279 48.1481 1410.39 74.3952 1610.21 71.7556C1774.48 69.6386 1916.55 51.2138 1916.55 51.2138" stroke="#A47BD6" stroke-width="0.5"/>
<path d="M1 26.627C1 26.627 303.482 73.1137 461.857 73.1963C703.998 73.3227 842.185 50.734 1084.29 48.2498C1284.19 46.1985 1410.81 81.9387 1610.64 79.563C1775.28 77.6577 1916.14 55.7778 1916.14 55.7778" stroke="#A47BD6" stroke-width="0.5"/>
<path d="M1 28.7627C1 28.7627 308.387 81.6295 466.762 81.7122C708.903 81.8385 847.376 48.7855 1089.48 46.3012C1289.38 44.2499 1411.23 89.4832 1611.07 87.3715C1776.08 85.6779 1915.74 60.3427 1915.74 60.3427" stroke="#A47BD6" stroke-width="0.5"/>
<path d="M1 30.8984C1 30.8984 313.292 90.1453 471.667 90.228C713.808 90.3544 852.566 46.8369 1094.67 44.3526C1294.57 42.3013 1411.65 97.0277 1611.5 95.1799C1776.88 93.698 1915.33 64.9077 1915.33 64.9077" stroke="#A47BD6" stroke-width="0.5"/>
<path d="M1 33.0342C1 33.0342 318.197 98.6612 476.571 98.7438C718.713 98.8702 857.757 44.8883 1099.86 42.404C1299.76 40.3527 1412.06 104.572 1611.93 102.988C1777.69 101.718 1914.93 69.4727 1914.93 69.4727" stroke="#A47BD6" stroke-width="0.5"/>
<path d="M1 35.1699C1 35.1699 323.101 107.177 481.476 107.26C723.617 107.386 862.947 42.9397 1105.05 40.4554C1304.95 38.4041 1412.48 112.117 1612.36 110.797C1778.49 109.738 1914.52 74.0377 1914.52 74.0377" stroke="#A47BD6" stroke-width="0.5"/>
<path d="M1 37.3047C1 37.3047 328.006 115.692 486.381 115.775C728.522 115.901 868.137 40.9901 1110.24 38.5058C1310.14 36.4545 1412.9 119.66 1612.79 118.604C1779.29 117.757 1914.12 78.6017 1914.12 78.6017" stroke="#A47BD6" stroke-width="0.5"/>
<path d="M1 42.3572C1 42.3572 332.911 127.125 491.286 127.207C733.427 127.334 873.328 41.9583 1115.43 39.474C1315.33 37.4227 1413.31 130.121 1613.21 129.329C1780.09 128.694 1913.71 86.0834 1913.71 86.0834" stroke="#A47BD6" stroke-width="0.5"/>
<path d="M1 48.5742C1 48.5742 337.816 139.722 496.19 139.804C738.332 139.931 878.518 44.0909 1120.62 41.6066C1320.52 39.5554 1413.73 141.747 1613.64 141.219C1780.9 140.796 1913.31 94.7296 1913.31 94.7296" stroke="#A47BD6" stroke-width="0.5"/>
<path d="M1 54.7917C1 54.7917 342.72 152.319 501.095 152.402C743.236 152.528 883.709 46.2241 1125.81 43.7398C1325.71 41.6886 1414.15 153.373 1614.07 153.109C1781.7 152.898 1912.9 103.376 1912.9 103.376" stroke="#A47BD6" stroke-width="0.5"/>
</svg>

<svg width="1922" height="166" fill="none" xmlns="http://www.w3.org/2000/svg"><path d="M1 30.992S244.625.918 403 1c242.141.127 376.899 103.111 619 100.627 199.9-2.051 383.81-80.228 583.5-85.771C1765.65 11.41 1921 30.992 1921 30.992" stroke="#A47BD6" stroke-width=".5"/><path d="M1 61.01S347.625 164.917 506 165c242.141.126 382.899-116.642 625-119.127C1330.9 43.823 1414.56 165 1614.5 165c168 0 298-52.976 298-52.976" stroke="#A47BD6" stroke-width=".5"/><path d="M1 26.748S249.53 3.053 407.905 3.136c242.141.126 377.185 92.647 619.285 90.162 199.9-2.051 379.04-70.735 578.74-76.014 160.52-4.234 314.67 11.893 314.67 11.893" stroke="#A47BD6" stroke-width=".5"/><path d="M1 22.503S254.435 5.19 412.81 5.272c242.141.126 377.47 82.182 619.57 79.698 199.9-2.052 374.26-61.242 573.98-66.257 160.9-4.023 313.83 8.649 313.83 8.649" stroke="#A47BD6" stroke-width=".5"/><path d="M1 18.258S259.339 7.324 417.714 7.407c242.141.126 377.757 71.717 619.856 69.233 199.9-2.051 369.49-51.748 569.22-56.5 161.27-3.81 313 5.406 313 5.406" stroke="#A47BD6" stroke-width=".5"/><path d="M1 14.015s263.244-4.554 421.619-4.47c242.141.125 378.042 61.252 620.141 58.768 199.9-2.051 364.72-42.256 564.45-46.743 161.65-3.599 312.17 2.163 312.17 2.163" stroke="#A47BD6" stroke-width=".5"/><path d="M1 11.678s268.149 1.826 426.524 1.908c242.141.127 378.328 50.79 620.426 48.305 199.9-2.051 359.94-32.763 559.69-36.986 162.02-3.387 311.34-1.081 311.34-1.081" stroke="#A47BD6" stroke-width=".5"/><path d="M1 13.813s273.054 8.207 431.429 8.29c242.141.126 378.613 40.324 620.711 37.84 199.91-2.052 355.17-23.27 554.93-27.23 162.4-3.175 310.5-4.324 310.5-4.324" stroke="#A47BD6" stroke-width=".5"/><path d="M1 15.95s277.958 14.585 436.333 14.668c242.141.127 378.9 29.86 620.997 27.376 199.91-2.052 350.4-13.777 550.17-17.472 162.77-2.964 309.67-7.568 309.67-7.568" stroke="#A47BD6" stroke-width=".5"/><path d="M1 18.085s282.863 20.966 441.238 21.049c242.141.126 379.185 19.395 621.282 16.911 199.91-2.051 345.62-4.283 545.41-7.715 163.14-2.752 308.83-10.811 308.83-10.811" stroke="#A47BD6" stroke-width=".5"/><path d="M1 20.22s287.768 27.347 446.143 27.43c242.141.126 379.471 8.93 621.567 6.447 199.91-2.052 340.85 5.21 540.65 2.042 163.51-2.54 308-14.055 308-14.055" stroke="#A47BD6" stroke-width=".5"/><path d="M1 22.355s292.673 33.727 451.048 33.81c242.141.126 379.756-1.534 621.852-4.018 199.91-2.051 336.08 14.703 535.89 11.8 163.88-2.33 307.16-17.3 307.16-17.3" stroke="#A47BD6" stroke-width=".5"/><path d="M1 24.492S298.578 64.6 456.952 64.682c242.141.126 380.043-11.998 622.148-14.483 199.9-2.05 331.29 24.196 531.11 21.557 164.27-2.117 306.34-20.542 306.34-20.542" stroke="#A47BD6" stroke-width=".5"/><path d="M1 26.627s302.482 46.487 460.857 46.57c242.141.126 380.328-22.463 622.433-24.947 199.9-2.051 326.52 33.689 526.35 31.313 164.64-1.905 305.5-23.785 305.5-23.785" stroke="#A47BD6" stroke-width=".5"/><path d="M1 28.763s307.387 52.866 465.762 52.95c242.141.126 380.614-32.927 622.718-35.412 199.9-2.051 321.75 43.182 521.59 41.07 165.01-1.693 304.67-27.028 304.67-27.028" stroke="#A47BD6" stroke-width=".5"/><path d="M1 30.898s312.292 59.247 470.667 59.33c242.141.126 380.899-43.391 623.003-45.875 199.9-2.052 316.98 52.675 516.83 50.827 165.38-1.482 303.83-30.272 303.83-30.272" stroke="#A47BD6" stroke-width=".5"/><path d="M1 33.034s317.197 65.627 475.571 65.71c242.142.126 381.186-53.856 623.289-56.34 199.9-2.051 312.2 62.168 512.07 60.584 165.76-1.27 303-33.515 303-33.515" stroke="#A47BD6" stroke-width=".5"/><path d="M1 35.17s322.101 72.007 480.476 72.09c242.141.126 381.471-64.32 623.574-66.805 199.9-2.05 307.43 71.662 507.31 70.342 166.13-1.059 302.16-36.76 302.16-36.76" stroke="#A47BD6" stroke-width=".5"/><path d="M1 37.305s327.006 78.387 485.381 78.47c242.141.126 381.756-74.785 623.859-77.27 199.9-2.05 302.66 81.155 502.55 80.099 166.5-.847 301.33-40.002 301.33-40.002" stroke="#A47BD6" stroke-width=".5"/><path d="M1 42.357s331.911 84.768 490.286 84.85c242.141.127 382.042-85.249 624.144-87.733 199.9-2.051 297.88 90.647 497.78 89.855 166.88-.635 300.5-43.246 300.5-43.246" stroke="#A47BD6" stroke-width=".5"/><path d="M1 48.574s336.816 91.148 495.19 91.23c242.142.127 382.328-95.713 624.43-98.197 199.9-2.052 293.11 100.14 493.02 99.612 167.26-.423 299.67-46.49 299.67-46.49" stroke="#A47BD6" stroke-width=".5"/><path d="M1 54.792s341.72 97.527 500.095 97.61c242.141.126 382.614-106.178 624.715-108.662 199.9-2.051 288.34 109.633 488.26 109.369 167.63-.211 298.83-49.733 298.83-49.733" stroke="#A47BD6" stroke-width=".5"/></svg>
